X:56
T:Title
C:Composer
L:1/8
Q:1/4=110
M:3/4
I:linebreak $
K:G
"^(Editorial suggestion  " (d>B) | G2 d2"^(a)" ee | (ed) d2 (A>B) | c2 B2"^(b)" AA | G4 B>c |$ 
w: Come _|all you pret- ty|fair _ maids I _|pray you now at-|tend un- to|
(d2 g2) (fe) | d2 G2 G2 | c2 cd e2 | d4 B>c |$ (d2 g2) (fe) | d2 G2 G2 | c2 cd e2 | d4 e>d |$ 
w: these _ few _|lines I am|just go- ing to|pen, un- to|these _ few _|lines I am|just go- ing to|write; she's my|
(cB) G2 G2 | (ed) d2 (B>G) | A2 G2 F2 | G4 ||$ (d>B) | G2 d2"^(a) var." e2 | (ed) d2 (A>B) | 
w: stu- * dy by|day _ and my _|dreams all by|night.||||
c2 B2"^(b) var." A2 | G4 B>c |$ (d2 g2) (fe) | d2 G2 G2 | c2 cd e2 | d4 B>c |$ (d2 g2) (fe) | 
w: |||||||
d2 G2 G2 | c2 cd e2 | d4 e>d |$ (cB) G2 G2 | (ed) d2 (B>G) | A2 G2 F2 | G4 |] 
w: |||||||



